!!!SOCIAL_FUNCTION:	corn-grinding songs
!!!PDT:	1957
!!!OTL: No_74_Corn-grinding_Song_(a).krn
!!!LING_GROUP: Keresan
!!!LANG: Tone
!!!REG: Southwest
**kern
*staff1
=1-
=
*clefF4
*k[b-e-a-d-]
*M3/4
[2A-\
8.A-\L]
16E-\Jk
=2
*M2/4
8F\L
8F\J
[4E-\
=3
4E-\]
4r
=4
8.F\L
16A-\Jk
16F\LK
8.E-\J
=5
4.E-\
8C/
=6
*M3/4
8E-\L
8E-\J
[4C/
8C/L]
8E-/J
=7
*M2/4
8C/L
8C/J
8C/L
16C/Jk
16r
=8
*M3/4
8C/L
8C/J
8C/L
16C/Jk
16r
4r
=9:|!
*M3/4
8C/L
8C/J
8C/L
16C/Jk
16r
8.r
16G\
=10!|:
*M2/4
8.c\L
16d-\Jk
8.c\L
16d-\Jk
=11
8c\L
8B-\J
4A-\
=12
16B-\LL
16B-\J
8c\J
8B-\
24A-\LL
24F\
24A-\JJ
=13
*M3/4
8.F\L
16E-\Jk
8C/
24E-/LL
24C/
24C/JJ
8E-\
8r
=14
*M2/4
8.F\L
16E-\Jk
8C/
24E-/LL
24C/
24C/JJ
=15
*M5/8
16.F\LL
32G\K
16F\
16G\J
8E-\J
24F/LL
24C/
24C/JJ
16.C/LL
32F/JJk
=16
*M2/4
16E-/LL
16C/J
8C/J
8C/L
16C/Jk
16r
=17
*M3/4
16E-/LL
16C/J
8C/J
8C/L
16C/Jk
16r
8.r
16G\
=18:|!
=
*M3/4
16C/LL
16C/J
8C/J
8C/L
16C/Jk
16r
8.r
16C/
=19
8.F\L
16E-\Jk
8C/
24E-/LL
24C/
24C/JJ
4E-\
=20
*M2/4
8.F\L
16E-\Jk
8C/L
16E-/L
16C/JJ
=21
*M5/8
16.F\LL
32G\K
16F\
16G\J
8E-\J
24F/LL
24C/
24C/JJ
16.C/LL
32F/JJk
=22
*M2/4
16E-/LL
16C/J
8C/J
8C/L
16C/Jk
16r
=23
*M3/4
8E-/L
16C/L
16C/JJ
8C/L
8C/J
4r
=24
*M2/4
8E-\L
8E-\J
8E-\L
8E-\J
=25
*M3/4
8E-\L
8E-\J
8E-\L
8E-\J
4r
=26
*M2/4
16E-/LL
16C/J
8C/J
8C/L
8C/J
=27
*M3/4
16E-\LL
16E-\J
8C\J
8C/L
8C/J
4r
=28
*M2/4
16E-/LL
16C/
16C/
16C/JJ
8C/L
16C/Jk
16r
=29
16E-/LL
16C/
16C/
16C/JJ
8C/L
16C/Jk
16r
==
*-
